!!!OTL: Der Vorwirt Stolz Reiter wollte ausreiten
!!!ARE: Europa, Mitteleuropa, Deutschland / France, Lothringen
!!!YOR: 5, S. 16
!!    1926 gedruckt in Heidelberg
!!!SCT: Q0089I
!!!YEM: Copyright 1995, estate of Helmut Schaffrath.
**kern
*ICvox
*Ivox
!! Irregular meter.
*MX
*k[f#]
*G:
{8g
8a
=1
2b
8g
8f#
4.e
8f#
4g
=2
8g
8b
4g}
{8g
8a
=3
2b
8g
8f#
4.e
8f#
4g
=4
2.a
2g}
{4g
4g
4f#
4e
=5
2d
4d
2a
4a
4b
4b
4a
=6
2b}
{4a
4g
4f#
4e
2d
4g
=7
2a
4b
=8
2g}
==
!!!AGN: Ballade, Mord, Grab, Auferstehen, Geist
!!!ONB: ESAC (Essen Associative Code) Database: BALLADE
!!!AMT: irregular
!!!AIN: vox
!!!EED: Helmut Schaffrath
!!!EEV: 1.0
*-
